X:478
T:Uttoxeter Swing
M:2/2
L:1/8
K:Em
E2 EF G2 GB | A2 AG FE D2 | E2 EF G2 GB | AG FG A4 |
E2 EF G2 GB | A2 AG FE D2 | E B2 E B2 AG | F2 FG E4 :|
B2 BA BA G2 | zA AG AG F2 | G2 GF GF E2 | F F2 G A4 |
B2 BA BA G2 | zA AG AG F2 | E B2 E B2 AG | F2 FG E4 :|
